X:365
T:the little Gipsey
A:Wyresdale, Lancashire
B:H.S.J. Jackson, 1823
L:1/8
M:C|
O:England
Z:Richard Robinson 
%%Dancenotes:Change sides back again hands across back down the middle up again (...)
%%TUNEURL: http://www.leeds.ac.uk/music/Info/RRTuneBk/gettune/00000e23.html
%%ID:00000e23
K:Bb
g | \
fBdB fBfB | fBdB gccg | fBdB fBdB | cedc BGG ::
A | \
BcdB ABcA | BGGB A^FD2 | BcdB Ag^fg | ecAd BGG ::
%page:44
